X:1
T:Če ti ne boš moj...
T:Emil Adamič
T:Če ti ne boš moj...
T:Copyright © 
T:Copyright © 
C:Emil Adamič
Z:Copyright ©
%%score [ ( 1 2 ) ( 3 4 ) ]
L:1/8
Q:1/4=68
M:3/4
K:G
V:1 treble-8 transpose=-12 nm="P1" snm="T. L."
V:2 treble-8 transpose=-12 
V:3 bass nm="Mešani  zbor" snm="Bar. B."
V:4 bass 
V:1
!p! B | !>!B2 A2 B2 | G4!<(! AB!<)! | !>!d2 c2 z d |!>(! B4!>)!!<(! GB!<)! |!mf! e2 d2 B2 | %6
!>(! G2 D2!>)! G2 |!p!"^počasi" A2!>(! B2 A2 | G4!>)!"^’" G!<(!B | e2 d2 B2!<)! |!f!"^široko" g6 | %11
!>(! f4!>)!"^’"!pp! =e2 |"^zategniti" !tenuto!d2!>(! !tenuto!A2 !tenuto!B2 | !fermata!G4!>)! x2 |] %14
V:2
 G | !>!G2 F2 G2 | E4 FG | G2 G2 x F | G4 GG | G2 F2 =F2 | E2 D2 ^C2 | ^C2 D2 =C2 | B,4 E[DF] | %9
w: Če|ti ne boš|moj, pa no-|be- den ne|bo; pa me|le- dik ne|si- te v\_to|čr- no zem-|ljo, pa me|
w: Ta|čr- na zem-|ljá, bo pa|po- stelj mo-|já, tam bom|ti- ho le-|ža- la jaz|dé- kle sa-|ma tam bom|
 [EG]2 [DG]2 [DG]2 | [Gc]6 | [G^c]4 [GB]2 | !tenuto![FA]2 !tenuto![EG]2 !tenuto![DF]2 | D4 x2 |] %14
w: le- dik ne-|si-|te v\_to|čr- no- zem-|ljo!|
w: ti- ho- le-|ža-|la jaz|dé- kle sa-|má.|
V:3
!p! D | !>!D2 D2 D2 | D4!<(! DD!<)! | D2 E2 z D |!>(! D4!>)!!<(! ED!<)! |!mf! B,2 A,2 G,2 | %6
!>(! G,2 G,2!>)! A,2 | G,2!>(! F,2 E,2 |"^’" D,4!>)! B,B, | C2 [G,B,]2 G,2 | E4 D2 | %11
!>(! [A,^C]4!>)!"^’"!pp! [A,C]2 | !tenuto!=C2!>(! !tenuto!C2 !tenuto!C2 | !fermata!B,4!>)! x2 |] %14
V:4
 G, | !>!G,2 G,2 G,2 | G,4 G,G, | !>!B,2 A,2 x D, | G,4 CG, | E,2 B,,2 D,2 | C,2 B,,2 A,,2 | %7
 D,2 D,2 [D,,D,]2 | G,,4 E,[B,,F,] | [C,G,]2 [G,,D,]2 [=F,,=F,]2 | [E,G,]6 | [_E,,_E,]4 A,,2 | %12
 !tenuto!D,2 !tenuto!D,2 !tenuto![D,,D,]2 | G,,4 x2 |] %14

